static/img/kroki/c4283acafbf6c976d61dd3d4a60c7036.svg

<?xml version="1.0" encoding="us-ascii" standalone="no"?><svg xmlns="http://www.w3.org/2000/svg" xmlns:xlink="http://www.w3.org/1999/xlink" contentStyleType="text/css" height="645px" preserveAspectRatio="none" style="width:241px;height:645px;" version="1.1" viewBox="0 0 241 645" width="241px" zoomAndPan="magnify"><defs/><g><!--class account--><g id="elem_account"><rect codeLine="22" fill="#3D176E" height="39.7891" id="account" rx="2.5" ry="2.5" style="stroke:#000D19;stroke-width:0.5;" width="107" x="67" y="438.76"/><ellipse cx="82" cy="458.6545" fill="#ADD1B2" rx="11" ry="11" style="stroke:#181818;stroke-width:1.0;"/><path d="M84.9688,464.2952 Q84.3906,464.592 83.75,464.7327 Q83.1094,464.8889 82.4063,464.8889 Q79.9063,464.8889 78.5781,463.2483 Q77.2656,461.592 77.2656,458.467 Q77.2656,455.342 78.5781,453.6858 Q79.9063,452.0295 82.4063,452.0295 Q83.1094,452.0295 83.75,452.1858 Q84.4063,452.342 84.9688,452.6389 L84.9688,455.3577 Q84.3438,454.7795 83.75,454.5139 Q83.1563,454.2327 82.5313,454.2327 Q81.1875,454.2327 80.5,455.3108 Q79.8125,456.3733 79.8125,458.467 Q79.8125,460.5608 80.5,461.6389 Q81.1875,462.7014 82.5313,462.7014 Q83.1563,462.7014 83.75,462.4358 Q84.3438,462.1545 84.9688,461.5764 L84.9688,464.2952 Z " fill="#000000"/><text fill="#D9B8FF" font-family="Helvetica" font-size="17" lengthAdjust="spacing" textLength="65" x="101" y="464.5398">account</text></g><!--class resource--><g id="elem_resource"><rect codeLine="24" fill="#3D176E" height="310.7578" id="resource" rx="2.5" ry="2.5" style="stroke:#000D19;stroke-width:0.5;" width="227" x="7" y="7"/><ellipse cx="75.75" cy="26.8945" fill="#ADD1B2" rx="11" ry="11" style="stroke:#181818;stroke-width:1.0;"/><path d="M78.7188,32.5352 Q78.1406,32.832 77.5,32.9727 Q76.8594,33.1289 76.1563,33.1289 Q73.6563,33.1289 72.3281,31.4883 Q71.0156,29.832 71.0156,26.707 Q71.0156,23.582 72.3281,21.9258 Q73.6563,20.2695 76.1563,20.2695 Q76.8594,20.2695 77.5,20.4258 Q78.1563,20.582 78.7188,20.8789 L78.7188,23.5977 Q78.0938,23.0195 77.5,22.7539 Q76.9063,22.4727 76.2813,22.4727 Q74.9375,22.4727 74.25,23.5508 Q73.5625,24.6133 73.5625,26.707 Q73.5625,28.8008 74.25,29.8789 Q74.9375,30.9414 76.2813,30.9414 Q76.9063,30.9414 77.5,30.6758 Q78.0938,30.3945 78.7188,29.8164 L78.7188,32.5352 Z " fill="#000000"/><text fill="#D9B8FF" font-family="Helvetica" font-size="17" lengthAdjust="spacing" textLength="71" x="101.25" y="32.7798">resource</text><line style="stroke:#000D19;stroke-width:0.5;" x1="8" x2="233" y1="46.7891" y2="46.7891"/><text fill="#D9B8FF" font-family="sans-serif" font-size="14" font-weight="bold" lengthAdjust="spacing" textLength="29" x="18" y="68.7842">age</text><text fill="#D9B8FF" font-family="sans-serif" font-size="14" lengthAdjust="spacing" textLength="66" x="47" y="68.7842">: duration</text><text fill="#D9B8FF" font-family="sans-serif" font-size="14" font-weight="bold" lengthAdjust="spacing" textLength="43" x="18" y="95.0811">atime</text><text fill="#D9B8FF" font-family="sans-serif" font-size="14" lengthAdjust="spacing" textLength="70" x="61" y="95.0811">: datetime</text><text fill="#D9B8FF" font-family="sans-serif" font-size="14" font-weight="bold" lengthAdjust="spacing" textLength="43" x="18" y="121.3779">ctime</text><text fill="#D9B8FF" font-family="sans-serif" font-size="14" lengthAdjust="spacing" textLength="70" x="61" y="121.3779">: datetime</text><text fill="#D9B8FF" font-family="sans-serif" font-size="14" font-weight="bold" lengthAdjust="spacing" textLength="14" x="18" y="147.6748">id</text><text fill="#D9B8FF" font-family="sans-serif" font-size="14" lengthAdjust="spacing" textLength="48" x="32" y="147.6748">: string</text><text fill="#D9B8FF" font-family="sans-serif" font-size="14" font-weight="bold" lengthAdjust="spacing" textLength="33" x="18" y="173.9717">kind</text><text fill="#D9B8FF" font-family="sans-serif" font-size="14" lengthAdjust="spacing" textLength="48" x="51" y="173.9717">: string</text><text fill="#D9B8FF" font-family="sans-serif" font-size="14" font-weight="bold" lengthAdjust="spacing" textLength="90" x="18" y="200.2686">last_access</text><text fill="#D9B8FF" font-family="sans-serif" font-size="14" lengthAdjust="spacing" textLength="66" x="108" y="200.2686">: duration</text><text fill="#D9B8FF" font-family="sans-serif" font-size="14" font-weight="bold" lengthAdjust="spacing" textLength="90" x="18" y="226.5654">last_update</text><text fill="#D9B8FF" font-family="sans-serif" font-size="14" lengthAdjust="spacing" textLength="66" x="108" y="226.5654">: duration</text><text fill="#D9B8FF" font-family="sans-serif" font-size="14" font-weight="bold" lengthAdjust="spacing" textLength="48" x="18" y="252.8623">mtime</text><text fill="#D9B8FF" font-family="sans-serif" font-size="14" lengthAdjust="spacing" textLength="70" x="66" y="252.8623">: datetime</text><text fill="#D9B8FF" font-family="sans-serif" font-size="14" font-weight="bold" lengthAdjust="spacing" textLength="43" x="18" y="279.1592">name</text><text fill="#D9B8FF" font-family="sans-serif" font-size="14" lengthAdjust="spacing" textLength="48" x="61" y="279.1592">: string</text><text fill="#D9B8FF" font-family="sans-serif" font-size="14" font-weight="bold" lengthAdjust="spacing" textLength="34" x="18" y="305.4561">tags</text><text fill="#D9B8FF" font-family="sans-serif" font-size="14" lengthAdjust="spacing" textLength="171" x="52" y="305.4561">: dictionary[string, string]</text></g><!--class vsphere_host--><g id="elem_vsphere_host"><rect codeLine="36" fill="#3D176E" height="39.7891" id="vsphere_host" rx="2.5" ry="2.5" style="stroke:#000D19;stroke-width:0.5;" width="153" x="44" y="599.55"/><ellipse cx="59" cy="619.4445" fill="#ADD1B2" rx="11" ry="11" style="stroke:#181818;stroke-width:1.0;"/><path d="M61.9688,625.0852 Q61.3906,625.382 60.75,625.5227 Q60.1094,625.6789 59.4063,625.6789 Q56.9063,625.6789 55.5781,624.0383 Q54.2656,622.382 54.2656,619.257 Q54.2656,616.132 55.5781,614.4758 Q56.9063,612.8195 59.4063,612.8195 Q60.1094,612.8195 60.75,612.9758 Q61.4063,613.132 61.9688,613.4289 L61.9688,616.1477 Q61.3438,615.5695 60.75,615.3039 Q60.1563,615.0227 59.5313,615.0227 Q58.1875,615.0227 57.5,616.1008 Q56.8125,617.1633 56.8125,619.257 Q56.8125,621.3508 57.5,622.4289 Q58.1875,623.4914 59.5313,623.4914 Q60.1563,623.4914 60.75,623.2258 Q61.3438,622.9445 61.9688,622.3664 L61.9688,625.0852 Z " fill="#000000"/><text fill="#D9B8FF" font-family="Helvetica" font-size="17" lengthAdjust="spacing" textLength="111" x="78" y="625.3298">vsphere_host</text></g><!--reverse link resource to account--><g id="link_resource_account"><path codeLine="38" d="M120.5,338.65 C120.5,379.33 120.5,417.03 120.5,438.68 " fill="none" id="resource-backto-account" style="stroke:#FFAF37;stroke-width:2.0;"/><polygon fill="none" points="113.5,338.85,120.5,318.85,127.5,338.85,113.5,338.85" style="stroke:#FFAF37;stroke-width:2.0;"/></g><!--reverse link account to vsphere_host--><g id="link_account_vsphere_host"><path codeLine="39" d="M120.5,499.56 C120.5,531.41 120.5,574.63 120.5,599.22 " fill="none" id="account-backto-vsphere_host" style="stroke:#FFAF37;stroke-width:2.0;"/><polygon fill="none" points="113.5,499.81,120.5,479.81,127.5,499.81,113.5,499.81" style="stroke:#FFAF37;stroke-width:2.0;"/></g><!--SRC=[XPBDQy904CNl_XKBta85hRHgwSKAfRr8gRsL8kFk95aqks5sejYF_xqReo4cVjoIztwPzsP8h1KAJ5BUYWIJ1P9hkQKsAH0aOanaDnExiYJQOGXXVr0tdwtXgy0K4XGlk5eZQmbruYFMScdGEN5RiPv0BYEocL75U2Ompbjek49DLk3Sc9dq8cEib56ZnJ0CwsHzQBklUeDxR62M5D8UwNQxgZUg8rUZBkvT4ZFzZQ9NFThKCZPgDY9srCMMEL4fsLZqu9_j-0PAQHE9kuhsNdGYWtIaps9GTfFJ8QnSDSOn4bhUfZXfR8MZeGe79-7NSx3CBoT0Ic-n-6dzxHL2PpEIwAKWW0Y3u46eZ82rDRd2EYaqOCoVlIPFQ5hbWlF_audygszsBFWidljq_xVM4dPEbkQpQavo8iT08PM36Q9YefRvPq3RpyAxsJDVvQfhbyR-JlFOkk82vUwFlvrEvt2Srk58XLhzwXy0]--></g></svg>

<svg xmlns="http://www.w3.org/2000/svg" width="241" height="645" preserveAspectRatio="none" style="width:241px;height:645px"><rect width="107" height="39.789" x="67" y="438.76" fill="#3D176E" rx="2.5" ry="2.5" style="stroke:#000d19;stroke-width:.5"/><circle cx="82" cy="458.654" r="11" fill="#ADD1B2" style="stroke:#181818;stroke-width:1"/><path d="M84.969 464.295q-.578.297-1.219.438-.64.156-1.344.156-2.5 0-3.828-1.64-1.312-1.657-1.312-4.782t1.312-4.781q1.328-1.656 3.828-1.656.703 0 1.344.156.656.156 1.219.453v2.719q-.625-.579-1.219-.844-.594-.281-1.219-.281-1.344 0-2.031 1.078-.688 1.062-.688 3.156 0 2.094.688 3.172.688 1.062 2.031 1.062.625 0 1.219-.265.594-.281 1.219-.86v2.72Z"/><text x="101" y="464.54" fill="#D9B8FF" font-family="Helvetica" font-size="17" textLength="65">account</text><rect width="227" height="310.758" x="7" y="7" fill="#3D176E" rx="2.5" ry="2.5" style="stroke:#000d19;stroke-width:.5"/><circle cx="75.75" cy="26.895" r="11" fill="#ADD1B2" style="stroke:#181818;stroke-width:1"/><path d="M78.719 32.535q-.578.297-1.219.438-.64.156-1.344.156-2.5 0-3.828-1.64-1.312-1.657-1.312-4.782t1.312-4.781q1.328-1.656 3.828-1.656.703 0 1.344.156.656.156 1.219.453v2.719q-.625-.578-1.219-.844-.594-.281-1.219-.281-1.344 0-2.031 1.078-.688 1.062-.688 3.156 0 2.094.688 3.172.688 1.062 2.031 1.062.625 0 1.219-.265.594-.281 1.219-.86v2.72Z"/><text x="101.25" y="32.78" fill="#D9B8FF" font-family="Helvetica" font-size="17" textLength="71">resource</text><path d="M8 46.789h225" style="stroke:#000d19;stroke-width:.5"/><text x="18" y="68.784" fill="#D9B8FF" font-family="sans-serif" font-size="14" font-weight="bold" textLength="29">age</text><text x="47" y="68.784" fill="#D9B8FF" font-family="sans-serif" font-size="14" textLength="66">: duration</text><text x="18" y="95.081" fill="#D9B8FF" font-family="sans-serif" font-size="14" font-weight="bold" textLength="43">atime</text><text x="61" y="95.081" fill="#D9B8FF" font-family="sans-serif" font-size="14" textLength="70">: datetime</text><text x="18" y="121.378" fill="#D9B8FF" font-family="sans-serif" font-size="14" font-weight="bold" textLength="43">ctime</text><text x="61" y="121.378" fill="#D9B8FF" font-family="sans-serif" font-size="14" textLength="70">: datetime</text><text x="18" y="147.675" fill="#D9B8FF" font-family="sans-serif" font-size="14" font-weight="bold" textLength="14">id</text><text x="32" y="147.675" fill="#D9B8FF" font-family="sans-serif" font-size="14" textLength="48">: string</text><text x="18" y="173.972" fill="#D9B8FF" font-family="sans-serif" font-size="14" font-weight="bold" textLength="33">kind</text><text x="51" y="173.972" fill="#D9B8FF" font-family="sans-serif" font-size="14" textLength="48">: string</text><text x="18" y="200.269" fill="#D9B8FF" font-family="sans-serif" font-size="14" font-weight="bold" textLength="90">last_access</text><text x="108" y="200.269" fill="#D9B8FF" font-family="sans-serif" font-size="14" textLength="66">: duration</text><text x="18" y="226.565" fill="#D9B8FF" font-family="sans-serif" font-size="14" font-weight="bold" textLength="90">last_update</text><text x="108" y="226.565" fill="#D9B8FF" font-family="sans-serif" font-size="14" textLength="66">: duration</text><text x="18" y="252.862" fill="#D9B8FF" font-family="sans-serif" font-size="14" font-weight="bold" textLength="48">mtime</text><text x="66" y="252.862" fill="#D9B8FF" font-family="sans-serif" font-size="14" textLength="70">: datetime</text><text x="18" y="279.159" fill="#D9B8FF" font-family="sans-serif" font-size="14" font-weight="bold" textLength="43">name</text><text x="61" y="279.159" fill="#D9B8FF" font-family="sans-serif" font-size="14" textLength="48">: string</text><text x="18" y="305.456" fill="#D9B8FF" font-family="sans-serif" font-size="14" font-weight="bold" textLength="34">tags</text><text x="52" y="305.456" fill="#D9B8FF" font-family="sans-serif" font-size="14" textLength="171">: dictionary[string, string]</text><rect width="153" height="39.789" x="44" y="599.55" fill="#3D176E" rx="2.5" ry="2.5" style="stroke:#000d19;stroke-width:.5"/><circle cx="59" cy="619.444" r="11" fill="#ADD1B2" style="stroke:#181818;stroke-width:1"/><path d="M61.969 625.085q-.578.297-1.219.438-.64.156-1.344.156-2.5 0-3.828-1.64-1.312-1.657-1.312-4.782t1.312-4.781q1.328-1.657 3.828-1.657.703 0 1.344.157.656.156 1.219.453v2.719q-.625-.579-1.219-.844-.594-.281-1.219-.281-1.343 0-2.031 1.078-.688 1.062-.688 3.156 0 2.094.688 3.172.688 1.062 2.031 1.062.625 0 1.219-.265.594-.282 1.219-.86v2.72Z"/><text x="78" y="625.33" fill="#D9B8FF" font-family="Helvetica" font-size="17" textLength="111">vsphere_host</text><path fill="none" d="M120.5 338.65v100.03m-7-99.83 7-20 7 20h-14zm7 160.71v99.66m-7-99.41 7-20 7 20h-14z" style="stroke:#ffaf37;stroke-width:2"/></svg>
